!!!OTL: 75. Bauer, baue Kessel.
!!!ARE: Europa, Mitteleuropa, Deutschland, Sachsen
!!!SCT: K2075
!!!TXL: @@DE
!!!YEM: Copyright 1995, estate of Helmut Schaffrath.
**kern	**text
*clefG2x	*
*M2/4	*
*k[f#]	*
*G:	*
=1	=1
{8g	Bau-
8g	-er,
8g	bau-
8b/	-e
=2	=2
4g	Keſ-
4d}	-ſel,
=3	=3
{8g	mor-
8g	-gen
8g	wird
8b/	es
=4	=4
4g	beſ-
4d}	-ſer,
=5	=5
{8g	trägt
8g	die
8g	Braut
8b/	das
=6	=6
8g	Waſ-
8g	-ſer
4d}	ein
=7	=7
{8.dd	bautʒ,
16cc	da
8b	fällt
8a	der
=8	=8
8g	Keſ-
8g	-ſel
4g}	ein.
==	==
!!!AGN: Kinder - Lied, Reigen, Tanz - Spiel
!!!ONB: ESAC (Essen Associative Code) Database: KINDER
!!!AMT: simple duple
!!!AIN: vox
!!!EED: Helmut Schaffrath
!!!EEV: 1.0
!!Aus Sachsen (1872). Text ebenso Simrock
!!!GTL: Zweites Buch. Kinderspiel: 2. Reigen und Tanzspiele. / A. Ringelreihen mit Niederfallen.
!!!URL-scan: https://archive.org/details/DeutschesKinderliedUndKinderspiel/page/443/mode/1up
!!!ENC: Anna Maria Matuszewska
!!!EEV: 2024/02/09843.
*-	*-
